X:1
T:La nuict froide et sombre
T:La nuict froide et sombre
T:Orlando di Lasso
C:Orlando di Lasso
%%score [ 1 2 3 4 ]
L:1/8
Q:1/4=106
M:4/4
K:C
V:1 treble nm="S"
V:2 treble nm="A"
V:3 treble-8 nm="T"
V:4 bass nm="B"
V:1
 F8 | E2 F4 F2 | F4 D4- | D4 z2 D2- | D2 ^C2 C2 E2 | E4 ^D4 | z2 E4 C2 | C4 F4- | F3 G A4 | A4 D4 | %10
w: La|nuit froide et|som- bre|_ cou-|* vrant d’ob- scu-|reom- bre|la ter-|reet les|_ _ _|cieux, aus-|
 E4 F4 | z2 F2 F2 A2- | A2 ^G2 G4 | z4 AGFE | A2 A4 G2- | G2 F4 E2- | ED D4 ^C2 | D2 z d cB c2 | %18
w: si doux,|aus- si doux|_ que miel,|fait cou- ler du|ciel le som-|* meil aux|_ _ _ _|yeux. Puis le jour sui-|
 A2 z G FE F2 | E2 E2 GA G2 | E2 ^F2 G A2 G- | G F2 E F2 A2 | G3 A- AF E2 | CD E2 F2 G2 | %24
w: vant, au la- beur dui-|sant, au la- beur dui-|sant, sa lu- eur ex-|* po- * se, et|d’un teint * di- vers,|et d’un teint di- vers,|
 c3 A A2 _B2 | A4 z2 z A- | A^GAF E2 D2 | z2 G2 ^F G2 F | GE B2- Bc d2 | ^c d2 c d A2 d | %30
w: ce grand u- ni-|vers ta-|* pis- seet com- po- se,|ta- pis- seet com-|po- se, ta- * pis- seet|com- po- * se, ta- pis-|
 cB E2 F A2 ^G | A2 F2 E4- | E2 D2- D^C/B,/ C2 | !fermata!D8 |] %34
w: seet com- po- se, ta- pis-|seet com- po-||se.|
V:2
 A,8 | A,4 D4 | C4 _B,4 | A,8 | E4 E2 B,2- | B,2 C2 B,4- | B,4 C2 G,2 | A,3 B, C4 | D4 E4 | %9
w: La|nuit froide|et som-|bre|cou- vrant d’ob-|* scu- reom-|* bre la|ter- * *|reet les|
 ^F4 z2 G2- | G2 G,2 _B,4- | B,4 A,4 | E4 z2 ED | CB, E2 z4 | F6 E2 | D6 C2 | _B,2 A,G, A,4 | %17
w: cieux, aus-|* si doux|_ que|miel, fait cou-|ler du ciel|le som-|meil aux|yeux. _ _ _|
 z2 F2 E3 E | F2 E2 z2 z D | CB, C2 B,A,DD | ^C2 DD EF D2 | C4 A,2 z C- | CB, C2 D2 C2 | %23
w: Puis le jour|sui- vant, au|la- beur dui- sant, au la- beur|dui- sant, sa lu- eur ex-|po- se, et|_ d’un teint di- vers,|
 ED C2 A,2 CC | E4 F3 F | F4 E3 D | E2 FD- D/^C/4B,/4C DB,- | B,A, B,A,/G,/ A,D D2 | %28
w: et d’un teint di- vers, ce|grand u- ni-|vers ta- pis-|seet com- po- * * * * se, ta-|* pis- seet _ _ _ com- po-|
 B, G2 ^F GE DB, | EA, A,A, F4 | E2 z E- ED E2 | F2 D2 C C2 B, |"^(""^)" [E,E]2 A,2 A,4 | %33
w: se, ta- pis- seet com- po- se,|ta- pis- seet com- po-|se, ta- * pis- seet|com- po- se, ta- pis-|seet com- po-|
 !fermata!^F,8 |] %34
w: se.|
V:3
 d8 | c4 z2 _B2- | B2 A2 G4 | ^F8 | A4 A2 ^G2- | G2 A2 ^F4 | G2 G4 E2 | F3 G AGFE | %8
w: La|nuit froide|_ et som-|bre|cou- vrant d’ob-|* scu- reom-|bre la ter-|reet _ _ _ _ _|
 D2 d2- d^c/B/ c2 | d4 B4 | c4 d2 d2- | d2 d2 c4- | c2 B2 B4 | edcB c4- | c4 c4 | _B2 A2 A3 G | %16
w: _ les _ _ _ _|cieux, aus-|si doux, aus-|* si doux|_ que miel,|fait cou- ler du ciel|_ le|som- meil aux _|
 F2 ED E4 | D4 z4 | z d cB c2 AA- | A^G A2 d2 B2 | z A2 A c2 _B2 | A3/2G/4F/4 G2 F4 | z4 z2 A2 | %23
w: _ _ _ _|yeux.|Puis le jour sui- vant, au|_ la- beur dui- sant,|sa lu- eur ex-|po- * * * se,|et|
 G3 A- AF E2 | A3 c c2 d2 | c2 z c- cB c/B/A/B/ | cB d2 A2 z2 | d3 ^c dB A2 | G2 z2 z A2 ^G | %29
w: d’un teint * di- vers,|ce grand u- ni-|vers ta- * pis- seet _ _ _|_ com- po- se,|ta- pis- seet com- po-|se, ta- pis-|
 AF E2 D4 | z E c2 A>B cB | d2 A2 z A2 ^G | A2 F2 E4 | !fermata!D8 |] %34
w: seet com- po- se,|ta- pis- seet _ _ com-|po- se, ta- pis-|seet com- po-|se.|
V:4
 D,8 | A,,4 _B,,4 | F,,4 G,,4 | D,8 | A,,4 A,,2 E,2- | E,2 A,,2 B,,4 | E,4 C,4 | %7
w: La|nuit froide|et som-|bre|cou- vrant d’ob-|* scu- reom-|bre la|
 F,,2 F,2- F,G, A,2- | A,2 _B,2 A,4 | z4 G,4 | C,4 _B,,4- | B,,4 F,4 | E,8 | z2 A,G, F,E, A,2 | %14
w: ter- reet _ _ _|_ les cieux,|aus-|si doux|_ que|miel,|fait cou- ler du ciel|
 F,4 C,4 | D,4 A,,4 | _B,,4 A,,4 | z2 A,2- A,^G, A,2 | D,2 E,2 A,2 D,D, | E,2 A,,A, G,^F, G,2 | %20
w: le som-|meil aux|_ yeux.|Puis _ le jour|sui- vant, au la- beur|dui- sant, au la- beur dui-|
 A,2 D,2 C,A,, _B,,2 | C,4 F,,4 | z4 z2 z C,- | C,B,, C,2 D,2 C,2 | z A,, A,2 F,2 _B,,2 | %25
w: sant, sa lu- eur ex-|po- se,|et|_ d’un teint di- vers,|ce grand u- ni-|
 F,2 z A,- A,^G,A,F, | E,2 D,2 z2 z G,- | G,^F, G,E, D,2 D,2 | z E,2 D, E,C, B,,2 | A,,4 z2 A,2- | %30
w: vers ta- * pis- seet com-|po- se, ta-|* pis- seet com- po- se,|ta- pis- seet com- po-|se, ta-|
 A,^G, A,2 F,2 E,2 | D,4 A,,2 E,2 | ^C,2 D,2 A,,4 | !fermata!D,8 |] %34
w: * pis- seet com- po-|se, ta- pis-|seet com- po-|se.|

